X:5
T:West Side Trows Reel
Z:Jack Campin <http://www.campin.me.uk/>
N:heard from the fairies by Hakki Johnson in Aithsting, 1790
M:4/4
L:1/8
K:Ador
a|fdfd fd2a|fdfd eB2g|({fg}f2)({fg}f)e defd|({ef}e2)fd eB2||
f|adfd ad2f|adfd eB2g|({fg}f2)({fg}f)e defd|({ef}e2)fd eA2||
A|dAFA dA2A|dAFA BE2A|dAFA BAGF|EFAB cA2|]
